packages/components/bolt-icons/src/svgs/product/product/crm/field service-gray.svg

<?xml version="1.0" encoding="UTF-8" standalone="no"?>
<svg width="32px" height="32px" viewBox="0 0 32 32" version="1.1" xmlns="http://www.w3.org/2000/svg" xmlns:xlink="http://www.w3.org/1999/xlink">
    <!-- Generator: Sketch 47.1 (45422) - http://www.bohemiancoding.com/sketch -->
    <title>Icon/product/CRM/Field Service-gray</title>
    <desc>Created with Sketch.</desc>
    <defs></defs>
    <g id="Symbols" stroke="none" stroke-width="1" fill="none" fill-rule="evenodd">
        <g id="Icon/product/CRM/Field-Service-gray" fill="#1F2555">
            <path d="M30,20 L29.188,16 L22,16 L22,18.125 C22.416,18.041 22.75,18 23,18 C24.625,18 25.959,18.666 27,20 L30,20 Z M22,14 L28.813,14 L28,10 L22,10 L22,14 Z M26,23 C26,22.166 25.709,21.459 25.125,20.875 C24.541,20.291 23.834,20 23,20 C22.166,20 21.459,20.291 20.875,20.875 C20.291,21.459 20,22.166 20,23 C20,23.834 20.291,24.541 20.875,25.125 C21.459,25.709 22.166,26 23,26 C23.834,26 24.541,25.709 25.125,25.125 C25.709,24.541 26,23.834 26,23 L26,23 Z M10,23 C10,22.166 9.709,21.459 9.125,20.875 C8.541,20.291 7.834,20 7,20 C6.166,20 5.459,20.291 4.875,20.875 C4.291,21.459 4,22.166 4,23 C4,23.834 4.291,24.541 4.875,25.125 C5.459,25.709 6.166,26 7,26 C7.834,26 8.541,25.709 9.125,25.125 C9.709,24.541 10,23.834 10,23 L10,23 Z M20,19 L20,7 C20,6.75 19.906,6.521 19.719,6.312 C19.531,6.104 19.291,6 19,6 L3,6 C2.709,6 2.469,6.104 2.281,6.312 C2.094,6.521 2,6.75 2,7 L2,19 C2,19.666 2.334,20 3,20 C4.041,18.666 5.375,18 7,18 C8.625,18 9.959,18.666 11,20 L19,20 C19.291,19.625 19.625,19.291 20,19 L20,19 Z M32,21 C32,21.25 31.906,21.479 31.719,21.687 C31.531,21.896 31.291,22 31,22 L27.875,22 C27.959,22.416 28,22.75 28,23 C28,24.375 27.51,25.553 26.531,26.531 C25.553,27.51 24.375,28 23,28 C21.625,28 20.447,27.51 19.469,26.531 C18.49,25.553 18,24.375 18,23 L18,22.813 L12,22.813 L12,23 C12,24.375 11.51,25.553 10.531,26.531 C9.553,27.51 8.375,28 7,28 C5.625,28 4.447,27.51 3.469,26.531 C2.49,25.553 2,24.375 2,23 L2,22.813 C1.459,22.813 0.99,22.604 0.594,22.188 C0.197,21.771 0,21.271 0,20.687 L0,6.062 C0,5.479 0.197,4.99 0.594,4.594 C0.99,4.197 1.459,4 2,4 L20,4 C20.541,4 21.01,4.197 21.406,4.594 C21.803,4.99 22,5.479 22,6.062 L22,8 L29,8 C29.666,8 30,8.334 30,9 L32,21 Z" id="Page-1"></path>
        </g>
    </g>
</svg>

<svg id="b5acd9f4-1c23-4dd4-8189-8a00ab935a9f" data-name="Layer 1" xmlns="http://www.w3.org/2000/svg" viewBox="0 0 32 24"><title>field service-gray</title><path id="bf1d1f91-84bc-46cd-b716-a761adc34707" data-name="Page-1" d="M30,20l-.8-4H22v2.1a4.14,4.14,0,0,1,1-.1,4.93,4.93,0,0,1,4,2Zm-8-6h6.8L28,10H22Zm4,9a3,3,0,0,0-5.1-2.1,3,3,0,1,0,4.2,4.2A2.88,2.88,0,0,0,26,23ZM10,23a2.88,2.88,0,0,0-.9-2.1,2.9,2.9,0,0,0-4.2,0,2.9,2.9,0,0,0,0,4.2,2.9,2.9,0,0,0,4.2,0A2.88,2.88,0,0,0,10,23Zm10-4V7a1.08,1.08,0,0,0-.3-.7A.91.91,0,0,0,19,6H3a.91.91,0,0,0-.7.3A1.08,1.08,0,0,0,2,7V19c0,.7.3,1,1,1a4.93,4.93,0,0,1,4-2,4.93,4.93,0,0,1,4,2h8a4.74,4.74,0,0,1,1-1Zm12,2a1.08,1.08,0,0,1-.3.7.91.91,0,0,1-.7.3H27.9a4.14,4.14,0,0,1,.1,1,4.54,4.54,0,0,1-1.5,3.5A4.85,4.85,0,0,1,23,28a4.69,4.69,0,0,1-3.5-1.5A4.85,4.85,0,0,1,18,23v-.2H12V23a4.54,4.54,0,0,1-1.5,3.5A4.85,4.85,0,0,1,7,28a4.69,4.69,0,0,1-3.5-1.5A4.85,4.85,0,0,1,2,23v-.2a2,2,0,0,1-1.4-.6A2,2,0,0,1,0,20.7V6.1A2,2,0,0,1,.6,4.6,2,2,0,0,1,2,4H20a2,2,0,0,1,1.4.6A2,2,0,0,1,22,6.1V8h7c.7,0,1,.3,1,1Z" transform="translate(0 -4)" fill="#1f2555" fill-rule="evenodd"/></svg>
